packages/icons/svg/Fill/repeat.svg

<svg width="24" height="24" viewBox="0 0 24 24" fill="none" xmlns="http://www.w3.org/2000/svg">
<g id="Icon/Fill/repeat">
<path id="Mask" fill-rule="evenodd" clip-rule="evenodd" d="M5.91425 5.00001H17.9102C19.8892 5.00001 21.5002 6.58301 21.5002 8.52901V11C21.5002 11.553 21.0532 12 20.5002 12C19.9473 12 19.5002 11.553 19.5002 11V8.52901C19.5002 7.68701 18.7873 7.00001 17.9102 7.00001H5.91425L7.20725 8.29301C7.59725 8.68401 7.59725 9.31601 7.20725 9.70701C7.01225 9.90201 6.75625 10 6.50025 10C6.24425 10 5.98825 9.90201 5.79325 9.70701L2.79325 6.70701C2.40225 6.31601 2.40225 5.68401 2.79325 5.29301L5.79325 2.29301C6.18325 1.90201 6.81625 1.90201 7.20725 2.29301C7.59725 2.68401 7.59725 3.31601 7.20725 3.70701L5.91425 5.00001ZM16.793 14.293C17.184 13.902 17.816 13.902 18.207 14.293L21.2071 17.293C21.5981 17.684 21.5981 18.316 21.2071 18.707L18.207 21.707C18.012 21.902 17.756 22 17.5 22C17.2441 22 16.988 21.902 16.793 21.707C16.4021 21.316 16.4021 20.684 16.793 20.293L18.0861 19H6.09005C4.11005 19 2.50005 17.417 2.50005 15.471V13C2.50005 12.447 2.94805 12 3.50005 12C4.05205 12 4.50005 12.447 4.50005 13V15.471C4.50005 16.314 5.21305 17 6.09005 17H18.0861L16.793 15.707C16.4021 15.316 16.4021 14.684 16.793 14.293Z" fill="#000000"/>
</g>
</svg>

<svg fill="none" height="24" viewBox="0 0 24 24" width="24" xmlns="http://www.w3.org/2000/svg"><path clip-rule="evenodd" d="m5.91419 4.99976h11.99601c1.979 0 3.59 1.583 3.59 3.529v2.47104c0 .553-.447 1-1 1s-1-.447-1-1v-2.47104c0-.842-.713-1.529-1.59-1.529h-11.99601l1.293 1.293c.39.391.39 1.023 0 1.414-.195.195-.451.293-.707.293s-.512-.098-.707-.293l-3-3c-.391-.391-.391-1.023 0-1.414l3-3c.39-.391 1.023-.391 1.414 0 .39.391.39 1.023 0 1.414zm10.87881 9.29314c.391-.391 1.023-.391 1.414 0l3 3c.391.391.391 1.023 0 1.414l-3 3c-.195.195-.451.293-.707.293s-.512-.098-.707-.293c-.391-.391-.391-1.023 0-1.414l1.293-1.293h-11.99601c-1.98 0-3.59-1.583-3.59-3.529v-2.471c0-.553.448-1 1-1s1 .447 1 1v2.471c0 .843.713 1.529 1.59 1.529h11.99601l-1.293-1.293c-.391-.391-.391-1.023 0-1.414z" fill="#6b7280" fill-rule="evenodd"/></svg>
